images/instagram-icon.svg

<svg width="24" height="24" viewBox="0 0 24 24" fill="none" xmlns="http://www.w3.org/2000/svg">
<path d="M12.9978 9.3322C11.5289 9.3322 10.3301 10.531 10.3301 12C10.3301 13.469 11.5289 14.6678 12.9978 14.6678C14.4668 14.6678 15.6656 13.469 15.6656 12C15.6656 10.531 14.4668 9.3322 12.9978 9.3322ZM20.9991 12C20.9991 10.8953 21.0091 9.80051 20.9471 8.69777C20.885 7.4169 20.5928 6.28014 19.6562 5.3435C18.7176 4.40487 17.5829 4.11467 16.302 4.05263C15.1973 3.99059 14.1026 4.0006 12.9999 4.0006C11.8951 4.0006 10.8004 3.99059 9.69768 4.05263C8.41684 4.11467 7.28009 4.40687 6.34348 5.3435C5.40486 6.28214 5.11467 7.4169 5.05263 8.69777C4.99059 9.80252 5.0006 10.8973 5.0006 12C5.0006 13.1027 4.99059 14.1995 5.05263 15.3022C5.11467 16.5831 5.40686 17.7199 6.34348 18.6565C7.28209 19.5951 8.41684 19.8853 9.69768 19.9474C10.8024 20.0094 11.8971 19.9994 12.9999 19.9994C14.1046 19.9994 15.1993 20.0094 16.302 19.9474C17.5829 19.8853 18.7196 19.5931 19.6562 18.6565C20.5948 17.7179 20.885 16.5831 20.9471 15.3022C21.0111 14.1995 20.9991 13.1047 20.9991 12V12ZM12.9978 16.1048C10.7264 16.1048 8.89315 14.2715 8.89315 12C8.89315 9.72847 10.7264 7.89523 12.9978 7.89523C15.2693 7.89523 17.1025 9.72847 17.1025 12C17.1025 14.2715 15.2693 16.1048 12.9978 16.1048ZM17.2707 8.68576C16.7403 8.68576 16.312 8.25747 16.312 7.72711C16.312 7.19675 16.7403 6.76847 17.2707 6.76847C17.801 6.76847 18.2293 7.19675 18.2293 7.72711C18.2294 7.85305 18.2048 7.97778 18.1566 8.09416C18.1085 8.21054 18.0379 8.31628 17.9489 8.40533C17.8598 8.49438 17.7541 8.56499 17.6377 8.61311C17.5213 8.66123 17.3966 8.68592 17.2707 8.68576V8.68576Z" fill="#595A7E"/>
</svg>

<svg xmlns="http://www.w3.org/2000/svg" width="24" height="24" fill="none"><path fill="#595A7E" d="M12.998 9.332A2.673 2.673 0 0 0 10.33 12a2.673 2.673 0 0 0 2.668 2.668A2.673 2.673 0 0 0 15.666 12a2.673 2.673 0 0 0-2.668-2.668ZM20.999 12c0-1.105.01-2.2-.052-3.302-.062-1.281-.354-2.418-1.29-3.355-.94-.938-2.074-1.228-3.355-1.29C15.197 3.99 14.102 4 13 4c-1.105 0-2.2-.01-3.302.052-1.281.062-2.418.354-3.355 1.29-.938.94-1.228 2.074-1.29 3.355C4.99 9.803 5 10.898 5 12c0 1.103-.01 2.2.052 3.302.062 1.281.354 2.418 1.29 3.355.94.938 2.074 1.228 3.355 1.29 1.104.062 2.2.052 3.302.052 1.105 0 2.2.01 3.302-.052 1.28-.062 2.418-.354 3.354-1.29.939-.94 1.229-2.074 1.291-3.355C21.011 14.2 21 13.105 21 12Zm-8.001 4.105A4.099 4.099 0 0 1 8.893 12a4.099 4.099 0 0 1 4.105-4.105A4.099 4.099 0 0 1 17.102 12a4.099 4.099 0 0 1-4.104 4.105Zm4.273-7.42a.958.958 0 1 1 0-1.917.957.957 0 1 1 0 1.918Z"/></svg>
